X: 116
T: No_202_Little_Boys'_Dance.krn
N: Derived from No_202_Little_Boys'_Dance.krn
%%abc-version 2.0
%%abcx-abcm2ps-target-version 5.9.1 (29 Sep 2008)
%%abc-creator hum2abc beta
%%abcx-conversion-date 2019/03/15 08:38:45
%%humdrum-veritas 3139109416
%%humdrum-veritas-data 428281736
%%linebreak <none>
%%barnumbers 0
L: 1/8
M: 2/4
K: G clef=bass
[K:clef=bass][M:2/4]z3D,/D,/ ]|:  
B,7/G,/ | 
G,/D,3/ E,/D,3/ | 
E,3/D,/ G,3/B,/ | 
A,7/E,/ ||  
[M:3/4]G,/G,/E,G,7/E,/ ||  
[M:2/4]G,/E,3/ (3G,E,G, | 
G,3E, | 
G,/E,3/ (3G,E,G, :|]  
G,/E,3/z2 |]  



% FRACTION = 0.499634BUT SHOULD BE 0
